X: 10393
T: The BATH WALTZ
C: Taylor.
R: Waltz.
%R: waltz
B: W. Hamilton "Universal Tune-Book" Vol. 1 Glasgow 1844 p.39 #3
S: http://imslp.org/wiki/Hamilton's_Universal_Tune-Book_(Various)
Z: 2016 John Chambers <jc:trillian.mit.edu>
M: 3/8
L: 1/16
K: G
% - - - - - - - - - - - - - - - - - - - - - - - - -
(3(DEF) |\
G2G2G2 | G4D2 | B2B2B2 | B4GB |\
d4BG | e4cA | F2G2A2 | G4 ::\
(Bd) |\
(dc)c2 (FA) | (AG)G2 (Bd) | (dc)c2 (FA) |\
G4 (Bd) |
(dc)c2 (fa) | (ag)g2 (Bd) | (dB)(ec)(FA) | G4 ::\
D2 |\
G2F2G2 | A4B2 | c2E2A2 | (G2F2)D2 |\
G2F2G2 | e3fge | d2(dB)(cA) | G4 :|
% - - - - - - - - - - - - - - - - - - - - - - - - -

%%sep 1 1 500
%%sep 1 1 500

